X: 149124
T: QUICKSTEP
%T: Come Under My Plaidie in 2/4 time
%R: quickstep, polka, reel
B: James Kerr "Merry Melodies" v.1 p.49 s.1 #24
Z: 2016 John Chambers <jc:trillian.mit.edu>
M: 2/4
L: 1/16
K: G	% and Em
(ge) |\
d2B2 B2(AG) | d2B2B2 (ge) | d2B2 B2(AB) | G2E2E2 (ge) |\
d2B2 B2(AG) | dBed B2(AG) | ABcd B2(AB) | G2E2E2 :|
|: ud2 |\
g4 a2ga | b2ge d2Bd | g4 a2ga | b2e2e2 (ga) |\
b2gb a2fa | (gege) d2BG | ABcd B2(AB) | G2E2E2 :|

%%sep 1 1 500
%%sep 1 1 500

